Newaita-dark/apps/48/vmware-workstation.svg

<svg height="48pt" viewBox="0 0 48 48" width="48pt" xmlns="http://www.w3.org/2000/svg" xmlns:xlink="http://www.w3.org/1999/xlink"><linearGradient id="a" gradientTransform="matrix(.236865 0 0 .093759 -64.028254 19.165894)" gradientUnits="userSpaceOnUse" x1="254" x2="254" y1="233.5" y2="254.666672"><stop offset="0" stop-opacity=".27451"/><stop offset="1" stop-opacity="0"/></linearGradient><linearGradient id="b"><stop offset="0" stop-opacity=".313725"/><stop offset=".222222" stop-opacity=".27451"/><stop offset="1" stop-opacity="0"/></linearGradient><radialGradient id="c" cx="450.908936" cy="189.579361" gradientTransform="matrix(.00000026 -.117199 -.210958 -.00000015 72.242277 94.400716)" gradientUnits="userSpaceOnUse" r="21.166656" xlink:href="#b"/><radialGradient id="d" cx="450.908936" cy="189.579361" gradientTransform="matrix(-.00000026 .117199 .210958 .00000015 -29.57414 -12.283502)" gradientUnits="userSpaceOnUse" r="21.166656" xlink:href="#b"/><radialGradient id="e" cx="450.908936" cy="189.579361" gradientTransform="matrix(-.00000026 -.117199 .210958 -.00000015 -29.57414 94.400716)" gradientUnits="userSpaceOnUse" r="21.166656" xlink:href="#b"/><radialGradient id="f" cx="450.908936" cy="189.579361" gradientTransform="matrix(.00000026 .117199 -.210958 .00000015 72.242274 -12.283502)" gradientUnits="userSpaceOnUse" r="21.166656" xlink:href="#b"/><linearGradient id="g" gradientUnits="userSpaceOnUse" x1="21.33407962505" x2="21.33407962505" y1="41.05861925005" y2="10.2978545001"><stop offset="0" stop-color="#ffa726"/><stop offset="1" stop-color="#ffb74d"/></linearGradient><linearGradient id="h" gradientUnits="userSpaceOnUse" x1="25.799384" x2="25.799384" y1="35.10497780616" y2="4.34417306195"><stop offset="0" stop-color="#ffcc80"/><stop offset="1" stop-color="#ffe0b2"/></linearGradient><path d="m9.921875 41.058594h22.824219v1.984375h-22.824219zm0 0" fill="url(#a)"/><path d="m32.746094 41.058594h3.96875v-1.984375h-3.96875zm0 0" fill="url(#c)"/><path d="m9.921875 41.058594h-3.96875v1.984375h3.96875zm0 0" fill="url(#d)"/><path d="m9.921875 41.058594h-3.96875v-1.984375h3.96875zm0 0" fill="url(#e)"/><path d="m32.746094 41.058594h3.96875v1.984375h-3.96875zm0 0" fill="url(#f)"/><path d="m9.921875 10.296875c-2.199219 0-3.96875 1.769531-3.96875 3.96875v22.824219c0 2.199218 1.769531 3.96875 3.96875 3.96875h22.824219c2.199218 0 3.96875-1.769532 3.96875-3.96875v-22.824219c0-2.199219-1.769532-3.96875-3.96875-3.96875zm3.96875 5.953125h14.886719c1.097656 0 1.984375.886719 1.984375 1.984375v14.886719c0 1.097656-.886719 1.984375-1.984375 1.984375h-14.886719c-1.097656 0-1.984375-.886719-1.984375-1.984375v-14.886719c0-1.097656.886719-1.984375 1.984375-1.984375zm0 0" fill="url(#g)"/><path d="m15.875 4.34375c-2.199219 0-3.96875 1.769531-3.96875 3.96875v1.984375h22.824219c1.097656 0 1.984375.886719 1.984375 1.984375v14.886719c0 1.097656-.886719 1.984375-1.984375 1.984375h-14.886719c-1.097656 0-1.984375-.886719-1.984375-1.984375v-10.917969h-3.96875c-1.097656 0-1.984375.886719-1.984375 1.984375v12.902344c0 2.199219 1.769531 3.96875 3.96875 3.96875h22.824219c2.199219 0 3.96875-1.769531 3.96875-3.96875v-22.824219c0-2.199219-1.769531-3.96875-3.96875-3.96875zm0 0" fill="url(#h)"/><path d="m19.84375 9.773438c-.519531 0-.992188.199218-1.34375.523437h16.230469c1.097656 0 1.984375.886719 1.984375 1.984375v-.523438c0-1.097656-.886719-1.984374-1.984375-1.984374zm-7.9375 20.839843v.523438c0 2.199219 1.769531 3.96875 3.96875 3.96875h22.824219c2.199219 0 3.96875-1.769531 3.96875-3.96875v-.523438c0 2.199219-1.769531 3.96875-3.96875 3.96875h-22.824219c-2.199219 0-3.96875-1.769531-3.96875-3.96875zm0 0" fill-opacity=".156863"/><path d="m9.921875 10.296875c-2.199219 0-3.96875 1.769531-3.96875 3.96875v.496094c0-2.199219 1.769531-3.96875 3.96875-3.96875h22.824219c2.199218 0 3.96875 1.769531 3.96875 3.96875v-.496094c0-2.199219-1.769532-3.96875-3.96875-3.96875zm1.984375 22.824219v.496094c0 1.097656.886719 1.984374 1.984375 1.984374h14.886719c.503906 0 .964844-.1875 1.3125-.496093h-16.199219c-1.097656 0-1.984375-.886719-1.984375-1.984375zm0 0" fill="#fff" fill-opacity=".313725"/><path d="m13.890625 15.726562c-1.097656 0-1.984375.886719-1.984375 1.984376v.523437c0-1.097656.886719-1.984375 1.984375-1.984375h14.886719c1.097656 0 1.984375.886719 1.984375 1.984375v-.523437c0-1.097657-.886719-1.984376-1.984375-1.984376zm-7.9375 20.839844v.523438c0 2.199218 1.769531 3.96875 3.96875 3.96875h22.824219c2.199218 0 3.96875-1.769532 3.96875-3.96875v-.523438c0 2.199219-1.769532 3.96875-3.96875 3.96875h-22.824219c-2.199219 0-3.96875-1.769531-3.96875-3.96875zm0 0" fill-opacity=".235294"/><path d="m15.875 4.34375c-2.199219 0-3.96875 1.769531-3.96875 3.96875v.496094c0-2.199219 1.769531-3.96875 3.96875-3.96875h22.824219c2.199219 0 3.96875 1.769531 3.96875 3.96875v-.496094c0-2.199219-1.769531-3.96875-3.96875-3.96875zm1.984375 22.824219v.496093c0 1.097657.886719 1.984376 1.984375 1.984376h14.886719c1.097656 0 1.984375-.886719 1.984375-1.984376v-.496093c0 1.097656-.886719 1.984375-1.984375 1.984375h-14.886719c-1.097656 0-1.984375-.886719-1.984375-1.984375zm0 0" fill="#fff" fill-opacity=".392157"/><g fill="#212121"><path d="m15.875 4.203125c-2.273438 0-4.109375 1.835937-4.109375 4.109375v1.984375h.28125v-1.984375c0-2.121094 1.707031-3.828125 3.828125-3.828125h22.824219c2.125 0 3.828125 1.707031 3.828125 3.828125v22.824219c0 2.121093-1.703125 3.828125-3.828125 3.828125h-22.824219c-2.121094 0-3.828125-1.707032-3.828125-3.828125h-.28125c0 2.273437 1.835937 4.109375 4.109375 4.109375h22.824219c2.273437 0 4.109375-1.835938 4.109375-4.109375v-22.824219c0-2.273438-1.835938-4.109375-4.109375-4.109375zm16.871094 5.953125v.28125h1.984375c1.023437 0 1.84375.820312 1.84375 1.84375v14.886719c0 1.023437-.820313 1.84375-1.84375 1.84375h-14.886719c-1.023438 0-1.84375-.820313-1.84375-1.84375v-10.917969h-.28125v10.917969c0 1.171875.953125 2.125 2.125 2.125h14.886719c1.175781 0 2.125-.953125 2.125-2.125v-14.886719c0-1.171875-.949219-2.125-2.125-2.125zm0 0"/><path d="m9.921875 10.15625c-2.273437 0-4.109375 1.835938-4.109375 4.109375v22.824219c0 2.273437 1.835938 4.109375 4.109375 4.109375h22.824219c2.273437 0 4.109375-1.835938 4.109375-4.109375v-1.984375h-.28125v1.984375c0 2.125-1.707031 3.828125-3.828125 3.828125h-22.824219c-2.121094 0-3.828125-1.703125-3.828125-3.828125v-22.824219c0-2.121094 1.707031-3.828125 3.828125-3.828125h22.824219c2.121094 0 3.828125 1.707031 3.828125 3.828125v12.902344h.28125v-12.902344c0-2.273437-1.835938-4.109375-4.109375-4.109375zm3.96875 5.953125c-1.171875 0-2.125.953125-2.125 2.125v14.886719c0 1.175781.953125 2.125 2.125 2.125h14.886719c.265625 0 .523437-.050782.761718-.140625h-3.242187v-.140625h-12.40625c-1.023437 0-1.84375-.820313-1.84375-1.84375v-14.886719c0-1.023437.820313-1.84375 1.84375-1.84375h14.886719c1.023437 0 1.84375.820313 1.84375 1.84375v10.917969h.28125v-10.917969c0-1.171875-.953125-2.125-2.125-2.125zm0 0"/></g></svg>

<?xml version="1.0" encoding="UTF-8"?>
<svg xmlns="http://www.w3.org/2000/svg" xmlns:xlink="http://www.w3.org/1999/xlink" width="48pt" height="48pt" viewBox="0 0 48 48" version="1.1">
<defs>
<linearGradient id="linear0" gradientUnits="userSpaceOnUse" x1="254" y1="233.5" x2="254" y2="254.666672" gradientTransform="matrix(0.236865,0,0,0.093759,-64.028254,19.165894)">
<stop offset="0" style="stop-color:rgb(0%,0%,0%);stop-opacity:0.27451;"/>
<stop offset="1" style="stop-color:rgb(0%,0%,0%);stop-opacity:0;"/>
</linearGradient>
<radialGradient id="radial0" gradientUnits="userSpaceOnUse" cx="450.908936" cy="189.579361" fx="450.908936" fy="189.579361" r="21.166656" gradientTransform="matrix(0.000000261256,-0.117199,-0.210958,-0.000000152308,72.242277,94.400716)">
<stop offset="0" style="stop-color:rgb(0%,0%,0%);stop-opacity:0.313725;"/>
<stop offset="0.222222" style="stop-color:rgb(0%,0%,0%);stop-opacity:0.27451;"/>
<stop offset="1" style="stop-color:rgb(0%,0%,0%);stop-opacity:0;"/>
</radialGradient>
<radialGradient id="radial1" gradientUnits="userSpaceOnUse" cx="450.908936" cy="189.579361" fx="450.908936" fy="189.579361" r="21.166656" gradientTransform="matrix(-0.000000261256,0.117199,0.210958,0.000000152308,-29.57414,-12.283502)">
<stop offset="0" style="stop-color:rgb(0%,0%,0%);stop-opacity:0.313725;"/>
<stop offset="0.222222" style="stop-color:rgb(0%,0%,0%);stop-opacity:0.27451;"/>
<stop offset="1" style="stop-color:rgb(0%,0%,0%);stop-opacity:0;"/>
</radialGradient>
<radialGradient id="radial2" gradientUnits="userSpaceOnUse" cx="450.908936" cy="189.579361" fx="450.908936" fy="189.579361" r="21.166656" gradientTransform="matrix(-0.000000261256,-0.117199,0.210958,-0.000000152308,-29.57414,94.400716)">
<stop offset="0" style="stop-color:rgb(0%,0%,0%);stop-opacity:0.313725;"/>
<stop offset="0.222222" style="stop-color:rgb(0%,0%,0%);stop-opacity:0.27451;"/>
<stop offset="1" style="stop-color:rgb(0%,0%,0%);stop-opacity:0;"/>
</radialGradient>
<radialGradient id="radial3" gradientUnits="userSpaceOnUse" cx="450.908936" cy="189.579361" fx="450.908936" fy="189.579361" r="21.166656" gradientTransform="matrix(0.000000261256,0.117199,-0.210958,0.000000152308,72.242274,-12.283502)">
<stop offset="0" style="stop-color:rgb(0%,0%,0%);stop-opacity:0.313725;"/>
<stop offset="0.222222" style="stop-color:rgb(0%,0%,0%);stop-opacity:0.27451;"/>
<stop offset="1" style="stop-color:rgb(0%,0%,0%);stop-opacity:0;"/>
</radialGradient>
<linearGradient id="linear1" gradientUnits="userSpaceOnUse" x1="227.541672" y1="222.916672" x2="227.541672" y2="-105.166656" gradientTransform="matrix(0.093759,0,0,0.093759,0,20.158175)">
<stop offset="0" style="stop-color:rgb(100%,65.490196%,14.901961%);stop-opacity:1;"/>
<stop offset="1" style="stop-color:rgb(100%,71.764706%,30.196078%);stop-opacity:1;"/>
</linearGradient>
<linearGradient id="linear2" gradientUnits="userSpaceOnUse" x1="1040" y1="1415.118164" x2="1040" y2="175.118134" gradientTransform="matrix(0.0248071,0,0,0.0248071,0,0)">
<stop offset="0" style="stop-color:rgb(100%,80%,50.196078%);stop-opacity:1;"/>
<stop offset="1" style="stop-color:rgb(100%,87.843137%,69.803922%);stop-opacity:1;"/>
</linearGradient>
</defs>
<g id="surface1">
<path style=" stroke:none;fill-rule:nonzero;fill:url(#linear0);" d="M 9.921875 41.058594 L 32.746094 41.058594 L 32.746094 43.042969 L 9.921875 43.042969 Z M 9.921875 41.058594 "/>
<path style=" stroke:none;fill-rule:nonzero;fill:url(#radial0);" d="M 32.746094 41.058594 L 36.714844 41.058594 L 36.714844 39.074219 L 32.746094 39.074219 Z M 32.746094 41.058594 "/>
<path style=" stroke:none;fill-rule:nonzero;fill:url(#radial1);" d="M 9.921875 41.058594 L 5.953125 41.058594 L 5.953125 43.042969 L 9.921875 43.042969 Z M 9.921875 41.058594 "/>
<path style=" stroke:none;fill-rule:nonzero;fill:url(#radial2);" d="M 9.921875 41.058594 L 5.953125 41.058594 L 5.953125 39.074219 L 9.921875 39.074219 Z M 9.921875 41.058594 "/>
<path style=" stroke:none;fill-rule:nonzero;fill:url(#radial3);" d="M 32.746094 41.058594 L 36.714844 41.058594 L 36.714844 43.042969 L 32.746094 43.042969 Z M 32.746094 41.058594 "/>
<path style=" stroke:none;fill-rule:nonzero;fill:url(#linear1);" d="M 9.921875 10.296875 C 7.722656 10.296875 5.953125 12.066406 5.953125 14.265625 L 5.953125 37.089844 C 5.953125 39.289062 7.722656 41.058594 9.921875 41.058594 L 32.746094 41.058594 C 34.945312 41.058594 36.714844 39.289062 36.714844 37.089844 L 36.714844 14.265625 C 36.714844 12.066406 34.945312 10.296875 32.746094 10.296875 Z M 13.890625 16.25 L 28.777344 16.25 C 29.875 16.25 30.761719 17.136719 30.761719 18.234375 L 30.761719 33.121094 C 30.761719 34.21875 29.875 35.105469 28.777344 35.105469 L 13.890625 35.105469 C 12.792969 35.105469 11.90625 34.21875 11.90625 33.121094 L 11.90625 18.234375 C 11.90625 17.136719 12.792969 16.25 13.890625 16.25 Z M 13.890625 16.25 "/>
<path style=" stroke:none;fill-rule:nonzero;fill:url(#linear2);" d="M 15.875 4.34375 C 13.675781 4.34375 11.90625 6.113281 11.90625 8.3125 L 11.90625 10.296875 L 34.730469 10.296875 C 35.828125 10.296875 36.714844 11.183594 36.714844 12.28125 L 36.714844 27.167969 C 36.714844 28.265625 35.828125 29.152344 34.730469 29.152344 L 19.84375 29.152344 C 18.746094 29.152344 17.859375 28.265625 17.859375 27.167969 L 17.859375 16.25 L 13.890625 16.25 C 12.792969 16.25 11.90625 17.136719 11.90625 18.234375 L 11.90625 31.136719 C 11.90625 33.335938 13.675781 35.105469 15.875 35.105469 L 38.699219 35.105469 C 40.898438 35.105469 42.667969 33.335938 42.667969 31.136719 L 42.667969 8.3125 C 42.667969 6.113281 40.898438 4.34375 38.699219 4.34375 Z M 15.875 4.34375 "/>
<path style=" stroke:none;fill-rule:nonzero;fill:rgb(0%,0%,0%);fill-opacity:0.156863;" d="M 19.84375 9.773438 C 19.324219 9.773438 18.851562 9.972656 18.5 10.296875 L 34.730469 10.296875 C 35.828125 10.296875 36.714844 11.183594 36.714844 12.28125 L 36.714844 11.757812 C 36.714844 10.660156 35.828125 9.773438 34.730469 9.773438 Z M 11.90625 30.613281 L 11.90625 31.136719 C 11.90625 33.335938 13.675781 35.105469 15.875 35.105469 L 38.699219 35.105469 C 40.898438 35.105469 42.667969 33.335938 42.667969 31.136719 L 42.667969 30.613281 C 42.667969 32.8125 40.898438 34.582031 38.699219 34.582031 L 15.875 34.582031 C 13.675781 34.582031 11.90625 32.8125 11.90625 30.613281 Z M 11.90625 30.613281 "/>
<path style=" stroke:none;fill-rule:nonzero;fill:rgb(100%,100%,100%);fill-opacity:0.313725;" d="M 9.921875 10.296875 C 7.722656 10.296875 5.953125 12.066406 5.953125 14.265625 L 5.953125 14.761719 C 5.953125 12.5625 7.722656 10.792969 9.921875 10.792969 L 32.746094 10.792969 C 34.945312 10.792969 36.714844 12.5625 36.714844 14.761719 L 36.714844 14.265625 C 36.714844 12.066406 34.945312 10.296875 32.746094 10.296875 Z M 11.90625 33.121094 L 11.90625 33.617188 C 11.90625 34.714844 12.792969 35.601562 13.890625 35.601562 L 28.777344 35.601562 C 29.28125 35.601562 29.742188 35.414062 30.089844 35.105469 L 13.890625 35.105469 C 12.792969 35.105469 11.90625 34.21875 11.90625 33.121094 Z M 11.90625 33.121094 "/>
<path style=" stroke:none;fill-rule:nonzero;fill:rgb(0%,0%,0%);fill-opacity:0.235294;" d="M 13.890625 15.726562 C 12.792969 15.726562 11.90625 16.613281 11.90625 17.710938 L 11.90625 18.234375 C 11.90625 17.136719 12.792969 16.25 13.890625 16.25 L 28.777344 16.25 C 29.875 16.25 30.761719 17.136719 30.761719 18.234375 L 30.761719 17.710938 C 30.761719 16.613281 29.875 15.726562 28.777344 15.726562 Z M 5.953125 36.566406 L 5.953125 37.089844 C 5.953125 39.289062 7.722656 41.058594 9.921875 41.058594 L 32.746094 41.058594 C 34.945312 41.058594 36.714844 39.289062 36.714844 37.089844 L 36.714844 36.566406 C 36.714844 38.765625 34.945312 40.535156 32.746094 40.535156 L 9.921875 40.535156 C 7.722656 40.535156 5.953125 38.765625 5.953125 36.566406 Z M 5.953125 36.566406 "/>
<path style=" stroke:none;fill-rule:nonzero;fill:rgb(100%,100%,100%);fill-opacity:0.392157;" d="M 15.875 4.34375 C 13.675781 4.34375 11.90625 6.113281 11.90625 8.3125 L 11.90625 8.808594 C 11.90625 6.609375 13.675781 4.839844 15.875 4.839844 L 38.699219 4.839844 C 40.898438 4.839844 42.667969 6.609375 42.667969 8.808594 L 42.667969 8.3125 C 42.667969 6.113281 40.898438 4.34375 38.699219 4.34375 Z M 17.859375 27.167969 L 17.859375 27.664062 C 17.859375 28.761719 18.746094 29.648438 19.84375 29.648438 L 34.730469 29.648438 C 35.828125 29.648438 36.714844 28.761719 36.714844 27.664062 L 36.714844 27.167969 C 36.714844 28.265625 35.828125 29.152344 34.730469 29.152344 L 19.84375 29.152344 C 18.746094 29.152344 17.859375 28.265625 17.859375 27.167969 Z M 17.859375 27.167969 "/>
<path style=" stroke:none;fill-rule:nonzero;fill:rgb(12.941177%,12.941177%,12.941177%);fill-opacity:1;" d="M 15.875 4.203125 C 13.601562 4.203125 11.765625 6.039062 11.765625 8.3125 L 11.765625 10.296875 L 12.046875 10.296875 L 12.046875 8.3125 C 12.046875 6.191406 13.753906 4.484375 15.875 4.484375 L 38.699219 4.484375 C 40.824219 4.484375 42.527344 6.191406 42.527344 8.3125 L 42.527344 31.136719 C 42.527344 33.257812 40.824219 34.964844 38.699219 34.964844 L 15.875 34.964844 C 13.753906 34.964844 12.046875 33.257812 12.046875 31.136719 L 11.765625 31.136719 C 11.765625 33.410156 13.601562 35.246094 15.875 35.246094 L 38.699219 35.246094 C 40.972656 35.246094 42.808594 33.410156 42.808594 31.136719 L 42.808594 8.3125 C 42.808594 6.039062 40.972656 4.203125 38.699219 4.203125 Z M 32.746094 10.15625 L 32.746094 10.4375 L 34.730469 10.4375 C 35.753906 10.4375 36.574219 11.257812 36.574219 12.28125 L 36.574219 27.167969 C 36.574219 28.191406 35.753906 29.011719 34.730469 29.011719 L 19.84375 29.011719 C 18.820312 29.011719 18 28.191406 18 27.167969 L 18 16.25 L 17.71875 16.25 L 17.71875 27.167969 C 17.71875 28.339844 18.671875 29.292969 19.84375 29.292969 L 34.730469 29.292969 C 35.90625 29.292969 36.855469 28.339844 36.855469 27.167969 L 36.855469 12.28125 C 36.855469 11.109375 35.90625 10.15625 34.730469 10.15625 Z M 32.746094 10.15625 "/>
<path style=" stroke:none;fill-rule:nonzero;fill:rgb(12.941177%,12.941177%,12.941177%);fill-opacity:1;" d="M 9.921875 10.15625 C 7.648438 10.15625 5.8125 11.992188 5.8125 14.265625 L 5.8125 37.089844 C 5.8125 39.363281 7.648438 41.199219 9.921875 41.199219 L 32.746094 41.199219 C 35.019531 41.199219 36.855469 39.363281 36.855469 37.089844 L 36.855469 35.105469 L 36.574219 35.105469 L 36.574219 37.089844 C 36.574219 39.214844 34.867188 40.917969 32.746094 40.917969 L 9.921875 40.917969 C 7.800781 40.917969 6.09375 39.214844 6.09375 37.089844 L 6.09375 14.265625 C 6.09375 12.144531 7.800781 10.4375 9.921875 10.4375 L 32.746094 10.4375 C 34.867188 10.4375 36.574219 12.144531 36.574219 14.265625 L 36.574219 27.167969 L 36.855469 27.167969 L 36.855469 14.265625 C 36.855469 11.992188 35.019531 10.15625 32.746094 10.15625 Z M 13.890625 16.109375 C 12.71875 16.109375 11.765625 17.0625 11.765625 18.234375 L 11.765625 33.121094 C 11.765625 34.296875 12.71875 35.246094 13.890625 35.246094 L 28.777344 35.246094 C 29.042969 35.246094 29.300781 35.195312 29.539062 35.105469 L 26.296875 35.105469 L 26.296875 34.964844 L 13.890625 34.964844 C 12.867188 34.964844 12.046875 34.144531 12.046875 33.121094 L 12.046875 18.234375 C 12.046875 17.210938 12.867188 16.390625 13.890625 16.390625 L 28.777344 16.390625 C 29.800781 16.390625 30.621094 17.210938 30.621094 18.234375 L 30.621094 29.152344 L 30.902344 29.152344 L 30.902344 18.234375 C 30.902344 17.0625 29.949219 16.109375 28.777344 16.109375 Z M 13.890625 16.109375 "/>
</g>
</svg>
